X:1
T:My Irish Molly-O
M:6/8
L:1/8
K:G
 B2 B B2 A| G2 E E2 F| G2 E F2 E| B,3- B,2 B| B2 B B2 A| G2 E E2 F|\
 G2 A B2 B| A6| B2 B B2 A| G2 E E2 F| G E2 F2 E| B,3- B,2 E| E2 F G2 A|\
 B2 B B2 A| G2 E F2 G| E3- EE F| G2F-F E^D| E2 B,- B,2 E| E2 F G2 A|\
 B3- B2 B| B3 A2 G| B2E-E EF| G2 E G2 A| B6| E2E-E EF| G2F-FE-^D| E2 F G2 A|\
 B6| B2 B B2 A| G2 E E2 F| G2 F E2 B| B A2 E2 A| G6|
